src/16/panel/dino-status-chat.svg

<svg xmlns="http://www.w3.org/2000/svg" width="16" height="16" version="1.1">
 <defs>
  <style id="current-color-scheme" type="text/css">
   .ColorScheme-Text { color:#dfdfdf; } .ColorScheme-Highlight { color:#4285f4; }
  </style>
 </defs>
 <path style="fill:currentColor" class="ColorScheme-Text" d="M 8 1 A 7 7 0 0 0 1 8 A 7 7 0 0 0 8 15 A 7 7 0 0 0 15 8 A 7 7 0 0 0 8 1 z M 4.5 5 A 1.5 1.5 0 0 1 6 6.5 A 1.5 1.5 0 0 1 4.5 8 A 1.5 1.5 0 0 1 3 6.5 A 1.5 1.5 0 0 1 4.5 5 z M 11.5 5 A 1.5 1.5 0 0 1 13 6.5 A 1.5 1.5 0 0 1 11.5 8 A 1.5 1.5 0 0 1 10 6.5 A 1.5 1.5 0 0 1 11.5 5 z M 11.990234 8.9804688 A 1.0001 1.0001 0 0 1 13 10 C 13 10 12.991382 10.314915 12.886719 10.628906 C 12.782055 10.942897 12.574882 11.33918 12.207031 11.707031 C 11.471329 12.442734 10.166667 13 8 13 C 5.8333333 13 4.528671 12.442734 3.7929688 11.707031 C 3.4251175 11.33918 3.217945 10.942897 3.1132812 10.628906 C 3.00862 10.314915 3 10 3 10 A 1.0001 1.0001 0 0 1 3.984375 8.9863281 A 1.0001 1.0001 0 0 1 4.9980469 9.9746094 C 4.9989219 9.9686007 5.0026272 9.9688191 5.0117188 9.9960938 C 5.032055 10.057103 5.0748824 10.16082 5.2070312 10.292969 C 5.4713291 10.557266 6.1666667 11 8 11 C 9.8333333 11 10.528672 10.55727 10.792969 10.292969 C 10.925121 10.16082 10.967941 10.057103 10.988281 9.9960938 C 10.997365 9.9688209 10.999123 9.9705533 11 9.9765625 A 1.0001 1.0001 0 0 1 11.990234 8.9804688 z"/>
</svg>

<svg xmlns="http://www.w3.org/2000/svg" width="16" height="16"><defs><style id="current-color-scheme" type="text/css"></style></defs><path d="M8 1a7 7 0 0 0-7 7 7 7 0 0 0 7 7 7 7 0 0 0 7-7 7 7 0 0 0-7-7zM4.5 5A1.5 1.5 0 0 1 6 6.5 1.5 1.5 0 0 1 4.5 8 1.5 1.5 0 0 1 3 6.5 1.5 1.5 0 0 1 4.5 5zm7 0A1.5 1.5 0 0 1 13 6.5 1.5 1.5 0 0 1 11.5 8 1.5 1.5 0 0 1 10 6.5 1.5 1.5 0 0 1 11.5 5zm.49 3.98A1 1 0 0 1 13 10s-.009.315-.113.629c-.105.314-.312.71-.68 1.078C11.471 12.443 10.167 13 8 13s-3.471-.557-4.207-1.293a2.796 2.796 0 0 1-.68-1.078C3.01 10.315 3 10 3 10a1 1 0 0 1 .984-1.014 1 1 0 0 1 1.014.989c0-.006.005-.006.014.021.02.061.063.165.195.297.264.264.96.707 2.793.707 1.833 0 2.529-.443 2.793-.707a.736.736 0 0 0 .195-.297c.01-.027.011-.025.012-.02a1 1 0 0 1 .99-.996z" fill="currentColor" color="#bebebe"/></svg>
